X: 47
T: Scarterglen
B: begged borrowed and stolen
M:2/4
L:1/8
Q: 1/4=100
K:G
V:1 
D2 |: "G"G4 G3A | B2d2 d2ef | "C"g2B2 BAGA | "D"B2A2 A2BA|
"G"G4 G3A | B2d2 d2ef | "C"g2B2 "D"A2BA|[1 "G"G6 D2:| [2 "G"G6 A2 ||
|:"G"B2d2 g3f | "C"f2e2 efge | "G"d2B2 BAGA | "D"B2A2 A4 |
"G"B2d2 g3f | "C"f2e2 efge | "G"d2B2 "D"A2BA| "G"G6 d2:|
|:"G"g4 "D"a4 |"G" b6 a2 | "G"g2g2 "D"a2a2 | "G"b6 ba | 
"C"g2e2 efge | "G"d2B2 g3e | "C"d2B2 "D"A2BA |"G" G8:|
% abcbook-tune_id 62828a3aa12a224d4d10dce9


% abcbook-boost 0
% abcbook-tablature 
% abcbook-transpose 
% abcbook-lastupdated 1652725431077
% abcbook-soundfonts 
% abcbook-repeats 3
% abc-sessionorg_id 
% abc-sessionorg_setting 0
% abc-sessionorg_setting_id undefined
% abc-boost 0

